X: 7
T: The Humours Of Glendart
R: jig
M: 6/8
L: 1/8
K: Dmaj
|:BAF ADD|FEF DFA|BAF ADD|FEE EFA|
BAF ADD|FEF DFA|dcB AFE|FDD D2A:||
|:def d2B|AF/G/A AF/G/A|def d2f|e3 fdB|
def d2B|A3 ABc|dcB AFE|FDD D2A:|


Tune 45	Setting 12472

